Papirus/24x24/mimetypes/application-x.allegorithmic.spp.svg

<svg width="24" height="24" version="1.1" xmlns="http://www.w3.org/2000/svg">
 <path d="m5 2.5c-0.554 0-1 0.446-1 1v18c0 0.554 0.446 1 1 1h14c0.554 0 1-0.446 1-1v-13l-6-6z" style="opacity:.2"/>
 <path d="m5 2c-0.554 0-1 0.446-1 1v18c0 0.554 0.446 1 1 1h14c0.554 0 1-0.446 1-1v-13l-5-1-1-5z" style="fill:#e4e4e4"/>
 <path d="m20 8.5-6-6v5c0 0.554 0.446 1 1 1z" style="opacity:.2"/>
 <path d="m20 8-6-6v5c0 0.554 0.446 1 1 1z" style="fill:#fafafa"/>
 <path d="m5 2c-0.554 0-1 0.446-1 1v0.5c0-0.554 0.446-1 1-1h9v-0.5z" style="fill:#ffffff;opacity:.2"/>
 <path d="m12 8-4.999999 2.500015v2.666689l7.000001 2.333341-2.000002 1.000017-2.5-1.25v-0.666349l-2.5-0.833333 1e-6 2.749666 4.999999 2.500016 5-2.500016v-2.666688l-6.999967-2.333329 1.999966-1.000029 2.5 1.249997v0.666381l2.500011 0.833337-1e-5 -2.749669z" style="fill:#e2222f"/>
 <path d="m12 10.5-2 1 0.599609 0.199219 1.400391-0.699219 2.5 1.25v-0.5zm2.5 1.916016v0.5l2.5 0.833984v-0.5zm-7.5 0.75v0.5l6.400391 2.134765 0.599609-0.300781zm0 3.333984v0.5l5 2.5 5-2.5v-0.5l-5 2.5z" style="opacity:.1"/>
</svg>

<svg xmlns="http://www.w3.org/2000/svg" width="24" height="24" version="1.1">
 <path style="opacity:0.2" d="M 5,2.5 C 4.446,2.5 4,2.946 4,3.5 V 21.5 C 4,22.054 4.446,22.5 5,22.5 H 19 C 19.554,22.5 20,22.054 20,21.5 V 8.5 L 14,2.5 Z"/>
 <path style="fill:#e4e4e4" d="M 5,2 C 4.446,2 4,2.446 4,3 V 21 C 4,21.554 4.446,22 5,22 H 19 C 19.554,22 20,21.554 20,21 V 8 L 15,7 14,2 Z"/>
 <path style="opacity:0.2" d="M 20,8.5 14,2.5 V 7.5 C 14,8.054 14.446,8.5 15,8.5 Z"/>
 <path style="fill:#fafafa" d="M 20,8 14,2 V 7 C 14,7.554 14.446,8 15,8 Z"/>
 <path style="opacity:0.2;fill:#ffffff" d="M 5 2 C 4.446 2 4 2.446 4 3 L 4 3.5 C 4 2.946 4.446 2.5 5 2.5 L 14 2.5 L 14 2 L 5 2 z"/>
 <path style="opacity:0.2" d="M 12,8.5 7,11 V 13.667 L 14,16 12,17 9.5,15.75 V 15.084 L 7,14.25 V 17 L 12,19.5 17,17 V 14.333 L 10,12 12,11 14.5,12.25 V 12.916 L 17,13.75 V 11 Z"/>
 <path style="fill:#e2222f" d="M 12,8 7,10.5 V 13.167 L 14,15.5 12,16.5 9.5,15.25 V 14.584 L 7,13.75 V 16.5 L 12,19 17,16.5 V 13.833 L 10,11.5 12,10.5 14.5,11.75 V 12.416 L 17,13.25 V 10.5 Z"/>
</svg>
